packages/icons/src/thumb-down.svg

<svg width="24" height="24" viewBox="0 0 24 24" fill="none" xmlns="http://www.w3.org/2000/svg">
<path d="M2.69826 13.92C2.97925 14.2573 3.33086 14.5289 3.72827 14.7155C4.12569 14.9021 4.55922 14.9992 4.99826 15H9.55826L8.99826 16.43C8.76533 17.0561 8.68776 17.7294 8.7722 18.392C8.85664 19.0547 9.10057 19.687 9.48308 20.2347C9.86558 20.7824 10.3752 21.2292 10.9683 21.5366C11.5614 21.8441 12.2202 22.0031 12.8883 22C13.0806 21.9996 13.2688 21.9437 13.4302 21.839C13.5916 21.7344 13.7194 21.5854 13.7983 21.41L16.6483 15H18.9983C19.7939 15 20.557 14.6839 21.1196 14.1213C21.6822 13.5587 21.9983 12.7956 21.9983 12V4.99997C21.9983 4.20432 21.6822 3.44126 21.1196 2.87865C20.557 2.31604 19.7939 1.99997 18.9983 1.99997H6.26826C5.56645 2.0002 4.88693 2.24648 4.34794 2.69595C3.80894 3.14541 3.44459 3.76962 3.31826 4.45997L2.04826 11.46C1.96971 11.8926 1.98722 12.3372 2.09954 12.7623C2.21187 13.1874 2.41626 13.5826 2.69826 13.92ZM16.9983 3.99997H18.9983C19.2635 3.99997 19.5178 4.10533 19.7054 4.29286C19.8929 4.4804 19.9983 4.73475 19.9983 4.99997V12C19.9983 12.2652 19.8929 12.5195 19.7054 12.7071C19.5178 12.8946 19.2635 13 18.9983 13H16.9983V3.99997ZM3.99826 11.82L5.26826 4.81997C5.31086 4.58701 5.43475 4.37673 5.61787 4.22657C5.801 4.07641 6.03147 3.99611 6.26826 3.99997H14.9983V13.79L12.2783 19.91C11.9983 19.8283 11.7383 19.6896 11.5146 19.5024C11.291 19.3152 11.1085 19.0837 10.9789 18.8225C10.8492 18.5612 10.7751 18.276 10.7612 17.9847C10.7473 17.6934 10.794 17.4023 10.8983 17.13L11.4283 15.7C11.5412 15.3977 11.5793 15.0726 11.5394 14.7524C11.4995 14.4323 11.3826 14.1265 11.1989 13.8612C11.0152 13.596 10.77 13.3791 10.4844 13.2291C10.1987 13.0792 9.88093 13.0005 9.55826 13H4.99826C4.85135 13.0002 4.70619 12.9681 4.57311 12.9059C4.44002 12.8436 4.32228 12.7529 4.22826 12.64C4.13193 12.5286 4.06136 12.3974 4.02161 12.2557C3.98185 12.1139 3.97388 11.9652 3.99826 11.82Z" fill="black"/>
</svg>

<svg xmlns="http://www.w3.org/2000/svg" width="24" height="24" fill="none" viewBox="0 0 24 24">
  <path fill="#000" d="M2.698 13.92a3 3 0 0 0 2.3 1.08h4.56l-.56 1.43a4.13 4.13 0 0 0 3.89 5.57 1 1 0 0 0 .91-.59l2.85-6.41h2.35a3 3 0 0 0 3-3V5a3 3 0 0 0-3-3H6.268a3 3 0 0 0-2.95 2.46l-1.27 7a3 3 0 0 0 .65 2.46ZM16.998 4h2a1 1 0 0 1 1 1v7a1 1 0 0 1-1 1h-2V4Zm-13 7.82 1.27-7a1 1 0 0 1 1-.82h8.73v9.79l-2.72 6.12a2.111 2.111 0 0 1-1.38-2.78l.53-1.43a2.001 2.001 0 0 0-1.87-2.7h-4.56a1 1 0 0 1-.77-.36 1 1 0 0 1-.23-.82Z"/>
</svg>
